img/filter.svg

<svg fill="none" height="800" viewBox="0 0 24 24" width="800" xmlns="http://www.w3.org/2000/svg">
    <path d="m19 3h-14c-1.41421 0-2.12132 0-2.56066.4122s-.43934 1.07562-.43934 2.40246v.68982c0 1.03784 0 1.55676.2596 1.98694s.73387.69716 1.68242 1.23113l2.91302 1.63985c.63642.3582.95463.5374 1.18247.7352.47448.4119.76657.8959.89893 1.4896.06356.285.06356.6186.06356 1.2857v2.6695c0 .9096 0 1.3643.25192 1.7189.25193.3545.69936.5294 1.59428.8793 1.8786.7344 2.8179 1.1016 3.4859.6838.6679-.4178.6679-1.3725.6679-3.282v-2.6695c0-.6671 0-1.0007.0636-1.2857.1323-.5937.4244-1.0777.8989-1.4896.2278-.1978.546-.377 1.1825-.7352l2.913-1.63985c.9485-.53397 1.4228-.80095 1.6824-1.23113s.2596-.9491.2596-1.98694v-.68982c0-1.32684 0-1.99026-.4393-2.40246-.4394-.4122-1.1465-.4122-2.5607-.4122z"
          fill="#ffffff"/>
</svg>

<?xml version="1.0" encoding="utf-8"?><!-- Uploaded to: SVG Repo, www.svgrepo.com, Generator: SVG Repo Mixer Tools -->
<svg width="800px" height="800px" viewBox="0 0 24 24" fill="none" xmlns="http://www.w3.org/2000/svg">
    <path d="M19 3H5C3.58579 3 2.87868 3 2.43934 3.4122C2 3.8244 2 4.48782 2 5.81466V6.50448C2 7.54232 2 8.06124 2.2596 8.49142C2.5192 8.9216 2.99347 9.18858 3.94202 9.72255L6.85504 11.3624C7.49146 11.7206 7.80967 11.8998 8.03751 12.0976C8.51199 12.5095 8.80408 12.9935 8.93644 13.5872C9 13.8722 9 14.2058 9 14.8729L9 17.5424C9 18.452 9 18.9067 9.25192 19.2613C9.50385 19.6158 9.95128 19.7907 10.8462 20.1406C12.7248 20.875 13.6641 21.2422 14.3321 20.8244C15 20.4066 15 19.4519 15 17.5424V14.8729C15 14.2058 15 13.8722 15.0636 13.5872C15.1959 12.9935 15.488 12.5095 15.9625 12.0976C16.1903 11.8998 16.5085 11.7206 17.145 11.3624L20.058 9.72255C21.0065 9.18858 21.4808 8.9216 21.7404 8.49142C22 8.06124 22 7.54232 22 6.50448V5.81466C22 4.48782 22 3.8244 21.5607 3.4122C21.1213 3 20.4142 3 19 3Z"
          fill="#FFFFFF"/>
</svg>
